X:1
T:In the Vineyard
T:In the Vineyard
T:Benjamin Carl Unseld
T:Eliza Morgan Sherman, 1880
T:Public Domain Courtesy of the Cyber Hymnal™
C:Benjamin Carl Unseld
Z:Public Domain
Z:Courtesy of the Cyber Hymnal™
%%score ( 1 2 ) ( 3 4 )
L:1/8
Q:1/4=107
M:4/4
K:F
V:1 treble 
V:2 treble 
V:3 bass 
V:4 bass 
V:1
 [FA]2 [Fc]2 [FB]2 [FA]2 | [DA]2 [DG]2 D2 [DG]2 | [CF]2 [CF]2 [CE]2 [CF]2 | [FA]2 [FG]2 [EG]4 | %4
w: 1.~Long, O Mas- ter,|in Thy vine- yard|Thro’ the dust and|heat of day,|
w: 2.~Tan- gled vines and|fad- ed flow- ers|Hid- den lie a-|mong my sheaves,|
w: 3.~Purge, Thou, then, the|sheaves so worth- less,|That I lay at|Thy dear feet,|
 [FA]2 [Fc]2 [FB]2 [_EA]2 | [DA]2 [DG]2 D2 [_DG]2 |"^riten." [CF]2 [CF]2 [=B,F]2 [_B,E]2 | %7
w: I have toiled, and|with my bur- den,|Come I now thro’|
w: Look’st Thou sor- row-|ful, O Mas- ter?|Is there noth- ing|
w: So they yield Thee|at the har- vest|On- ly fin- est|
 [B,D]2 [CE]2 [CF]4 ||"^Refrain" [EG]4 [Ec]4 | [Ge]2 [Fd]2 [Ec]2 [EG]2 | [GB]2 [GB]2 [FA]2 [Fd]2 | %11
w: sha- dows gray.||||
w: there but leaves?|Toil- ing|in Thy vine- yard|All day long with|
w: of the wheat.||||
 [Fd]2 [F=B]2 (!fermata![Ec]2 !fermata![G_B]2) | [FA]2 [Fc]2 [FB]2 [_EA]2 | [DA]2 [DG]2 D2 [_DG]2 | %14
w: |||
w: wea- ry feet, *|Glad to rest when|ev- ening com- eth,|
w: |||
"^riten." [CF]2 [CF]2 [=B,F]2 [_B,E]2 | [B,D]2 [CE]2 [CF]4 |] x8 |] %17
w: |||
w: And the hours are|cool and sweet.||
w: |||
V:2
 x8 | x4 D2 x2 | x8 | x8 | x8 | x4 _D2 x2 | x8 | x8 || x8 | x8 | x8 | x8 | x8 | x4 _D2 x2 | x8 | %15
 x8 |] x8 |] %17
V:3
 [F,C]2 [F,_E]2 [F,D]2 [F,C]2 | [B,,B,]2 [B,,B,]2 [B,,B,]2 [B,,B,]2 | %2
w: ~ ~ ~ ~|~ ~ ~ ~|
 [C,A,]2 [C,A,]2 [C,G,]2 [C,A,]2 | [G,,=B,]2 [G,,B,]2 [C,C]4 | [F,C]2 [F,_E]2 [F,D]2 [F,C]2 | %5
w: ~ ~ ~ ~|~ ~ ~|~ ~ ~ ~|
 [B,,C]2 [B,,B,]2 [B,,F,]2 [B,,B,]2 | [C,A,]2 x6 | [C,A,]2 [D,G,]2 [C,G,]2 x2 || %8
w: ~ ~ ~ ~|~|~ ~ ~|
 [C,G,]2 [C,B,]2 [F,A,]4 | [C,C]2 [C,C]2 [C,C]2 [C,C]2 | [C,C]2 [C,C]2 [C,C]2 [C,C]2 | %11
w: ~ ~ ~|Toil- ing, toil- ing,|toil- ing, toil- ing,|
 [E,C]2 [E,C]2 [F,C]2 B,2 | [G,=B,]2 [G,D]2 C4 | [F,C]2 [F,_E]2 [F,D]2 [F,C]2 | %14
w: |||
 [B,,C]2 [B,,B,]2 [B,,F,]2 [B,,G,]2 | [C,A,]2 [C,A,]2 [D,G,]2 [C,G,]2 |] [C,G,]2 [C,B,]2 [F,A,]4 |] %17
w: |||
V:4
 x8 | x8 | x8 | x8 | x8 | x8 | x8 | x8 || x8 | x8 | x8 | x6 B,2 | x4 (C,2 E,2) | x8 | x8 | x8 |] %16
 x8 |] %17

